Origami/64x64/apps/wine-uninstaller.svg

<svg width="64" height="64" version="1" xmlns="http://www.w3.org/2000/svg">
 <rect transform="matrix(0,-1,-1,0,0,0)" x="-60" y="-60" width="56" height="56" rx="3" ry="3" style="fill:#4f4f4f"/>
 <path d="m11.429757 35h17.142286c0.789976 0 1.427957 0.637974 1.427957 1.427943v17.142114c0 0.791969-0.637981 1.429943-1.427957 1.429943h-17.143486c-0.791376 0-1.428557-0.637974-1.428557-1.427943v-17.143314c0-0.789969 0.637181-1.427943 1.428557-1.427943z" style="opacity:.2"/>
 <path d="m7 4c-1.662 0-3 1.338-3 3v1c0-1.662 1.338-3 3-3h50c1.662 0 3 1.338 3 3v-1c0-1.662-1.338-3-3-3h-50z" style="fill:#ffffff;opacity:.1"/>
 <g transform="matrix(1.9999364,0,0,2,9.181526e-4,1.0006)" style="opacity:.2">
  <path d="m5.7143 5h8.5714c0.395 0 0.714 0.3186 0.714 0.7143v8.5714c0 0.395-0.319 0.714-0.714 0.714h-8.5717c-0.3957 0-0.7143-0.319-0.7143-0.714v-8.5717c0-0.3957 0.3186-0.7143 0.7143-0.7143z"/>
  <path d="m17.714 5h8.5714c0.396 0 0.715 0.3186 0.715 0.7143v8.5714c0 0.395-0.319 0.714-0.714 0.714h-8.5714c-0.396 0-0.715-0.319-0.715-0.714v-8.5714c0-0.39571 0.31857-0.71429 0.71429-0.71429z"/>
 </g>
 <path d="m11.4292 10.0006h17.1428c0.79 0 1.428 0.6372 1.428 1.4286v17.1428c0 0.79-0.638 1.428-1.428 1.428h-17.1434c-0.7914 0-1.4286-0.638-1.4286-1.428v-17.1434c0-0.7914 0.6372-1.4286 1.4286-1.4286z" style="fill:#48aeff"/>
 <path d="m35.427943 10h17.142114c0.791969 0 1.429943 0.637219 1.429943 1.428643v17.143314c0 0.790024-0.637974 1.428043-1.427943 1.428043h-17.142114c-0.791969 0-1.429943-0.638019-1.429943-1.428043v-17.143314c0-0.791444 0.637115-1.428623 1.428523-1.428623z" style="fill:#48aeff"/>
 <path d="m11.4292 34h17.1428c0.79 0 1.428 0.637974 1.428 1.427943v17.142114c0 0.791969-0.638 1.429943-1.428 1.429943h-17.1434c-0.7914 0-1.4286-0.637974-1.4286-1.427943v-17.143314c0-0.789969 0.6372-1.427943 1.4286-1.427943z" style="fill:#48aeff"/>
 <path d="m4 57v1c0 1.662 1.338 3 3 3h50c1.662 0 3-1.338 3-3v-1c0 1.662-1.338 3-3 3h-50c-1.662 0-3-1.338-3-3z" style="opacity:.2"/>
 <circle cx="46" cy="46" r="16" style="fill:#fa6257"/>
 <path d="m53.482 38.518c-0.69082-0.69082-1.80314-0.69082-2.494 0l-4.988 4.988-4.988-4.988c-0.69082-0.69082-1.80314-0.69082-2.494 0-0.69082 0.69082-0.69082 1.80314 0 2.494l4.988 4.988-4.988 4.988c-0.69082 0.69082-0.69082 1.80314 0 2.494 0.69082 0.69082 1.80314 0.69082 2.494 0l4.988-4.988 4.988 4.988c0.69082 0.69082 1.80314 0.69082 2.494 0 0.69082-0.69082 0.69082-1.80314 0-2.494l-4.988-4.988 4.988-4.988c0.69082-0.69082 0.69082-1.80314 0-2.494z" style="fill:#ffffff"/>
 <path d="M 30.025391,46.501953 A 16,16 0 0 0 30,47 16,16 0 0 0 46,63 16,16 0 0 0 62,47 16,16 0 0 0 61.982422,46.507812 16,16 0 0 1 46,62 16,16 0 0 1 30.025391,46.501953 Z" style="opacity:.2"/>
</svg>

<svg xmlns="http://www.w3.org/2000/svg" width="64" height="64" version="1">
 <rect style="fill:#4f4f4f" width="56" height="56" x="-60" y="-60" rx="3" ry="3" transform="matrix(0,-1,-1,0,0,0)"/>
 <path style="opacity:0.2" d="m 11.429757,35 17.142286,0 C 29.362019,35 30,35.637974 30,36.427943 l 0,17.142114 C 30,54.362026 29.362019,55 28.572043,55 L 11.428557,55 C 10.637181,55 10,54.362026 10,53.572057 L 10,36.428743 C 10,35.638774 10.637181,35.0008 11.428557,35.0008 Z"/>
 <path style="opacity:0.1;fill:#ffffff" d="M 7 4 C 5.338 4 4 5.338 4 7 L 4 8 C 4 6.338 5.338 5 7 5 L 57 5 C 58.662 5 60 6.338 60 8 L 60 7 C 60 5.338 58.662 4 57 4 L 7 4 z"/>
 <g style="opacity:0.2" transform="matrix(1.9999364,0,0,2,9.181526e-4,1.0006)">
  <path d="m 5.7143,5 8.5714,0 c 0.395,0 0.714,0.3186 0.714,0.7143 l 0,8.5714 c 0,0.395 -0.319,0.714 -0.714,0.714 l -8.5717,0 c -0.3957,0 -0.7143,-0.319 -0.7143,-0.714 l 0,-8.5717 c 0,-0.3957 0.3186,-0.7143 0.7143,-0.7143 z"/>
  <path d="m 17.714,5 8.5714,0 c 0.396,0 0.715,0.3186 0.715,0.7143 l 0,8.5714 c 0,0.395 -0.319,0.714 -0.714,0.714 l -8.5714,0 c -0.396,0 -0.715,-0.319 -0.715,-0.714 l 0,-8.5714 c 0,-0.39571 0.31857,-0.71429 0.71429,-0.71429 z"/>
 </g>
 <path style="fill:#48aeff" d="m 11.4292,10.0006 17.1428,0 c 0.79,0 1.428,0.6372 1.428,1.4286 L 30,28.572 C 30,29.362 29.362,30 28.572,30 L 11.4286,30 C 10.6372,30 10,29.362 10,28.572 L 10,11.4286 C 10,10.6372 10.6372,10 11.4286,10 Z"/>
 <path style="fill:#48aeff" d="m 35.427943,10 17.142114,0 C 53.362026,10 54,10.637219 54,11.428643 l 0,17.143314 C 54,29.361981 53.362026,30 52.572057,30 L 35.429943,30 C 34.637974,30 34,29.361981 34,28.571957 l 0,-17.143314 c 0,-0.791444 0.637115,-1.428623 1.428523,-1.428623 z"/>
 <path style="fill:#48aeff" d="M 11.4292,34 28.572,34 C 29.362,34 30,34.637974 30,35.427943 l 0,17.142114 C 30,53.362026 29.362,54 28.572,54 L 11.4286,54 C 10.6372,54 10,53.362026 10,52.572057 L 10,35.428743 C 10,34.638774 10.6372,34.0008 11.4286,34.0008 Z"/>
 <path style="opacity:0.2" d="m 4,57 0,1 c 0,1.662 1.338,3 3,3 l 50,0 c 1.662,0 3,-1.338 3,-3 l 0,-1 c 0,1.662 -1.338,3 -3,3 L 7,60 C 5.338,60 4,58.662 4,57 Z"/>
 <circle style="fill:#fa6257" cx="46" cy="46" r="16"/>
 <path style="fill:#ffffff" d="m 53.482,38.518 c -0.69082,-0.69082 -1.80314,-0.69082 -2.494,0 L 46,43.506 41.012,38.518 c -0.69082,-0.69082 -1.80314,-0.69082 -2.494,0 -0.69082,0.69082 -0.69082,1.80314 0,2.494 L 43.506,46 38.518,50.988 c -0.69082,0.69082 -0.69082,1.80314 0,2.494 0.69082,0.69082 1.80314,0.69082 2.494,0 L 46,48.494 l 4.988,4.988 c 0.69082,0.69082 1.80314,0.69082 2.494,0 0.69082,-0.69082 0.69082,-1.80314 0,-2.494 L 48.494,46 53.482,41.012 c 0.69082,-0.69082 0.69082,-1.80314 0,-2.494 z"/>
 <path style="opacity:0.2" d="M 30.025391,46.501953 A 16,16 0 0 0 30,47 16,16 0 0 0 46,63 16,16 0 0 0 62,47 16,16 0 0 0 61.982422,46.507812 16,16 0 0 1 46,62 16,16 0 0 1 30.025391,46.501953 Z"/>
</svg>
